X:1
T:Elle s'en va dont tant triste
T:Ph.Benoist
T:Source : Livre VIII de 25 chansons nouvelles à 4 parties---Paris---N.du Chemin---1550. Editor : André Vierendeels (26/03/18). Notes : Original clefs : C1, C3, C4, F4 Original note values have been halved Editorial accidentals above the staff Dotted bracket indicates black notes  
T:Elle s'en va dont tant triste
T:©
T:©
C:Ph.Benoist
Z:©
%%score [ 1 [ 2 3 ] 4 ]
L:1/8
Q:1/4=120
M:2/2
K:F
V:1 treble nm="Soprano" snm="S"
V:2 treble-8 nm="Tenor 1" snm="T 1"
V:3 treble-8 nm="Tenor 2" snm="T 2"
V:4 bass nm="Bass" snm="B"
V:1
 F8 | E2 E2 FGAB | c2 G2 A2 A2 | F2 F2 E2 G2- | GF F4 E2 | F2 A2 F2 B2 | A3 G F4 | E2 A2 A2 G2 | %8
w: El-|le s'en va _ _ _|_ dont tant tri-|ste de- meu- *||re, qu'à mon en-|nuy, _ _|_ qu'à mon en-|
 A2 B2 B2 A2 | A2 G2 A4 | d4 c2 c2 | B4 A4 | z2 A2 A2 A2 |"^b" c3 B A2 G2- | G2 F2 G2 G2- | %15
w: nuy n'ay moy- en|de pour- voir,|qu'el- le par-|ti- e,|aus- si- tost|ie _ _ ne|_ meu- re, sans|
 G2 G2 G4 | F2 B2 B2 B2 | AGFE F2 G2- | G2 F4 E2 | F2 A4 GF | G2 G2 F2 B2 | B2 B2 AGFE | %22
w: _ un es-|poir de bien- tost|la _ _ _ _ re-||voir, sans _ _|un es- poir de|bien- tost la _ _ _|
 F2 G4 F2- |[M:2/4] F2 E2 |[M:2/2] F8 |] %25
w: _ re- *||voir.|
V:2
 c8 | c2 c2 F2 c2 | c2 c2 c2 A2 | B4 A2 d2- | d2 B2 c4 | A4 z2 f2- | f2 c2 d4 | G2 e2 f2 e2 | %8
w: El-|le s'en va dont|tant tri- ste de-|meu- re, qu'à|_ mon en-|nuy, qu'à|_ mon en-|nuy qu'à mon en-|
 c2 f2 f2 f2 | d2 d2 d4 | f4 f2 c2 | f8 | z2 f2 f2 f2 | c2 c2 e4 | d4 z2 d2- | d2 c2 e4 | %16
w: nuy n'ay moy- en|de pour- voir,|qu'el- le par-|tie,|aus- si- tost|ie ne meu-|re, sans|_ un es-|
 d2 f2 f4- | f2 c4 d2- | d2 B2 c4 | c2 f4 e2 | d4 d2 f2 | f6 c2- | c2 d4 B2 |[M:2/4] c4 | %24
w: poir de bien-|* tost la|_ re- *|voir, sans es-|poir de bien-|tost la|_ re- *||
[M:2/2] A8 |] %25
w: voir.|
V:3
 A8 | G2 G2 BAAG/F/ | G4 z2 c2 | d2 d2 c2 B2 | A2 GF G4 | F2 c2 A2 d2- | dc c4 B2 | c2 c2 B2 B2 | %8
w: El-|le s'en va _ _ _ _|_ dont|tant tri- ste de-|meu- * * *|re, qu'à mon en-||nuy n'ay moy- en|
 A2 d3 cBA | B4 A4 | B4 A2 A2 | d4 c4- | c4 z2 A2 | A2 A2 c3 B | A4 G2 B2- | B2 G2 c4 | %16
w: de pour- * * *|* voir,|qu'el- le par-|ti- e,|_ aus-|si- tost ie ne|meu- re, sans|_ un es-|
 A2 d2 d2 d2 | cBAG A2 B2- | BAGF G4 | F2 c4 c2 | B4 A2 d2 | d2 d2 cBAG | A2 B3 AGF |[M:2/4] G4 | %24
w: poir de bien- tost|la _ _ _ _ re-||voir, sans un|es- poir de|bien- tost la _ _ _|_ re- * * *||
[M:2/2] F8 |] %25
w: voir.|
V:4
 F,,4 F,,G,,A,,B,, | C,D,E,C, D,E, F,2- | F,2 E,2 F,2 F,2 | B,,2 B,,2 C,2 G,,2 | D,4 C,4 | %5
w: El- le _ _ _|_ _ _ _ _ _ _|* s'en va dont|tant tri- ste de-|meu- *|
 F,,2 F,4 B,,2 | F,3 E, D,4 | C,2 C,2 D,2 E,2 | F,2 B,,2 F,4 | G,4 D,4 | B,,4 F,2 F,2 | B,,4 F,4- | %12
w: re, qu'à mon|en- * *|nuy n'ay moy- en|de _ pour-|* voir,|qu'el- le par-|ti- e,|
 F,4 z2 F,2 | F,2 F,2 C,2 C,2 | D,4 G,,2 G,2- | G,2 C,2 C,4 | D,2 B,,2 B,,C,D,E, | F,6 B,,2 | %18
w: _ aus-|si- tost ie ne|meu- re, sans|_ un es-|poir de bien- * * *|* tost|
 D,4 C,4 | F,,2 F,4 C,2 | G,4 D,2 B,,2 | B,,C,D,E, F,4- | F,2 B,,2 D,4 |[M:2/4] C,4 | %24
w: la re-|voir, sans un|es- poir de|bien- * * * *|* tost la|re-|
[M:2/2] F,,8 |] %25
w: voir.|

